X: 89
T:Leo Barry's Reel
R:Reel
C:Emile Benoit
M:C|
L:1/8
Z:Gerry Strong
K:G
gf|:edBd cBAc|BGAG E2 DE|G2 BG dGBG|cBAG A2 gf|edBd cBAc|BGAG E2 DE|G2 B
G ABcA|1dBAB G2 gf:|2dBAB G2G2||
|:Ggga gedB|Ggga gedB|Aaab agfg|agfe d2 ef|gfga gdBG|gfga gdBG|c2 Ac B2
GB|1AcAF G2G2:|2AcAF G2||

